!!!!SEGMENT: pl-wtm--r-1395_stefani-jozef--krakowiak.krn
!!!cenid: 18xx:1868
!!!COM: Stefani, Józef
!!!COM-rismid: pe30024097
!!!CDT: 1800/04/16-1876/03/19
!!!CNT: Polish
!!!OTL: Krakowiak
!!!PDT:
!!!AGN: Secular; Krakowiak
!!!SMS-siglum: PL-Wtm
!!!SMS-shelfmark: R 1395
!!!SMS-shelfwork: W
!!!SMS-variant:
!!!SMS-altvar:
!!!NIFC-rismid: 1001117327
!!!URL-scan: http://repozytorium.nifc.pl/skany/pl-wtm-nut--r1394--r1395
!!!ONB-nifc: UWAGA: utwory w zbiorze: 1. Mazur Rok 1869, 2. Krakowiak (Hej, między wronami siadł gołąb)
!!!key:
**kern	**kern	**dynam	**kern	**text	**text	**text
*part2	*part2	*part2	*part1	*part1	*part1	*part1
*staff3	*staff2	*	*staff1	*staff1	*staff1	*staff1
*Ipiano	*Iempty	*	*Isoprn	*	*	*
*I"Piano	*	*	*I"Soprano	*	*	*
*I'P-no	*	*	*I'S.	*	*	*
*clefF4	*clefG2	*	*clefG2	*	*	*
*k[f#]	*k[f#]	*	*k[f#]	*	*	*
*G:	*G:	*	*G:	*	*	*
*M2/4	*M2/4	*	*M2/4	*	*	*
=1	=1	=1	=1	=1	=1	=1
*^	*	*	*	*	*	*
!	!	!	!LO:DY:rj	!	!	!	!
4D/	8D\L	8dd'\L	f	2ryy	.	.	.
.	8c\J 8A\	(16cc#X\L	.	.	.	.	.
.	.	16dd\JJ	.	.	.	.	.
*rep	*rep	*	*	*	*	*	*
4D/	8D\L	8ee\L	.	.	.	.	.
.	8c\J 8A\	8ff#\J)	.	.	.	.	.
*Xrep	*Xrep	*	*	*	*	*	*
*v	*v	*	*	*	*	*	*
=2	=2	=2	=2	=2	=2	=2
!LO:TX:t=P:problem=mixed beam	!	!	!	!	!	!
8GG/L	(16gg\LL	.	2ryy	.	.	.
.	16ff#\	.	.	.	.	.
8B\ 8G\ 8D\	16gg\	.	.	.	.	.
.	16aa\JJ)	.	.	.	.	.
8B\ 8G\ 8D\	8bb\L	.	.	.	.	.
8B\J 8G\ 8D\	8gg'\J	.	.	.	.	.
=3	=3	=3	=3	=3	=3	=3
*^	*	*	*	*	*	*
4C/	8C\L	8ee'\L	.	2ryy	.	.	.
!	!	!LO:TUP:a:problem=klamra łukowa	!	!	!	!	!
.	8c\J 8G\ 8E\	24ee\L	.	.	.	.	.
.	.	24ff#\	.	.	.	.	.
.	.	24ee\JJ	.	.	.	.	.
4D/	8D\L	8dd\L	.	.	.	.	.
.	8c\J 8A\	8ff#'\J	.	.	.	.	.
*v	*v	*	*	*	*	*	*
=	=	=	=	=	=	=
8B\ 8G\	8gg\	.	4ryy	.	.	.
8r	8r	.	.	.	.	.
8d\ 8A\ 8F#\ 8D;\	8ddd\ 8ff#\ 8dd;\	.	8ryy	.	.	.
!!LO:LB:g=original
=4||	=4||	=4||	=4||	=4||	=4||	=4||
*k[f#]	*k[f#]	*	*k[f#]	*	*	*
!	!	!	!LO:TX:a:t=[segno]	!	!	!
8r	8r	p	8d/	1.) Hej	2.) Oj	3.) No
=5	=5	=5	=5	=5	=5	=5
8D/ 8DD/	8r	.	4d/	mię-	śmiej	nie
8r	8f#/ 8d/ 8c/ 8A/	.	.	.	.	.
8D/ 8DD/	8r	.	8e/	-dzy	się,	smuć
8r	8f#/ 8d/ 8c/ 8A/	.	8f#/	wro-	bo	się
=6	=6	=6	=6	=6	=6	=6
4G\ 4GG\	8r	.	4g/	-na-	świę-	i-
.	8g/L 8d/ 8B/	.	.	.	.	.
4r	8g/ 8d/ 8B/	.	4b/	-mi	-cie	-no
.	8g/J 8d/ 8B/	.	.	.	.	.
=7	=7	=7	=7	=7	=7	=7
8D/ 8DD/	8r	.	8a/	siadł	Du-	Boć
8r	8f#/ 8d/ 8c/ 8A/	.	8dd\	go-	-ka-	za-
8D/ 8DD/	8r	.	8cc\	-łąb	-ta	-wdy
8r	8f#/ 8d/ 8c/ 8A/	.	8a/	i	ro-	na
=8	=8	=8	=8	=8	=8	=8
.	.	.	(16qqb/LL	.	.	.
.	.	.	16qqcc/JJ)	.	.	.
4G\ 4GG\	8r	.	4b/	gru-	-zmie-	świe-
.	8g/L 8d/ 8B/	.	.	.	.	.
4r	8g/ 8d/ 8B/	.	8g/	-cha	-nie	-cie
.	8g/J 8d/ 8B/	.	8b/	Z mo-	I	Być
!!LO:LB:g=original
=9	=9	=9	=9	=9	=9	=9
4C#X/ 4CC#X/	8r	.	(8.a/L	-dre-	wnet	tru-
*	*tremolo	*	*	*	*	*
.	8g/ 8e/ 8A/L	.	.	.	.	.
.	.	.	32b/LL	.	.	.
.	.	.	32a/JJJ)	.	.	.
4r	8g/ 8e/ 8A/	.	8e/	-mi	po	-dno
.	8g/ 8e/ 8A/J	.	8g/	o-	ad-	dziew-
*	*Xtremolo	*	*	*	*	*
=10	=10	=10	=10	=10	=10	=10
4D/ 4DD/	8r	.	(8f#/L	-cza-	-wen-	-czy-
.	8f#/ 8d/ 8A/	.	8a/J)	.	.	.
4F#/ 4FF#/	8r	.	(8ee\L	-mi	-cie	-ną
.	8a/ 8d/ 8A/	.	8dd\J)	.	.	.
=11	=11	=11	=11	=11	=11	=11
8G\ 8GG\	8r	.	8cc#X\	śmie-	Ku-	Roz-
8r	8b/ 8g/ 8d/	.	8b\	-je	-pię	-śmiej-
8A\ 8AA\	8r	.	8a/	się	dwa	-że
8r	8g/ 8c#X/ 8A/	.	8e/	dzie-	pier-	się
=12	=12	=12	=12	=12	=12	=12
4D/ 4DD/	8r	.	8g/L	-wu-	-ście-	prze-
.	8f#/ 8d/ 8A/	.	8f#/J	.	.	.
4r	4f#/ 4d/ 4A/	.	4d/	-cha.	-nie	-cie.
=13	=13	=13	=13	=13	=13	=13
*^	*	*	*	*	*	*
!	!LO:N:vis=2	!	!	!	!	!	!
2C#X/	8C#X\L	(8.a/L	.	2r	.	.	.
.	8G\ 8E\	.	.	.	.	.	.
.	.	32b/LL	.	.	.	.	.
.	.	32a/JJJ	.	.	.	.	.
.	8G\ 8E\	8e/L)	.	.	.	.	.
.	8G\J 8E\	8g'/J	.	.	.	.	.
=14	=14	=14	=14	=14	=14	=14	=14
4D/	8D\L	(8f#/L	.	2r	.	.	.
.	8A\J 8F#\	8a/J)	.	.	.	.	.
*rep	*rep	*	*	*	*	*	*
4D/	8D\L	(8ee\L	.	.	.	.	.
.	8A\J 8F#\	8dd\J)	.	.	.	.	.
*Xrep	*Xrep	*	*	*	*	*	*
*v	*v	*	*	*	*	*	*
!!LO:LB:g=original
=15	=15	=15	=15	=15	=15	=15
8G\ 8GG\	8r	.	8cc#X/	Śmie-	Ku-	Roz-
8r	8g/ 8e/ 8B/	.	8b/	-ie	-pię	-śmiej-
8A\ 8AA\	8r	.	8a/	się	dwa	-że
8r	8g/ 8c#X/ 8A/	.	8e/	dzie-	pier-	się
=16	=16	=16	=16	=16	=16	=16
8D/ 8DD/	8r	.	8g/L	-wu-	-ście-	prze-
8r	8f#/L 8d/ 8A/	.	8f#/J	.	.	.
8D/ 8DD/	8f#/J 8d/ 8A/	.	8d/	-cha,	-nie	-cie.
8r	8r	.	8dd\	Aj	A	Hej
=17	=17	=17	=17	=17	=17	=17
8C/ 8CC/	8r	.	4ee\	śmiej	na	mię-
8r	8ee/ 8g/ 8e/	.	.	.	.	.
8C/ 8CC/	8r	.	8g/	się	po-	-dzy
8r	8ee/ 8g/ 8e/	.	8ee\	bo	-pra-	wro-
=18	=18	=18	=18	=18	=18	=18
8BB/ 8BBB/	8r	.	4dd\	Cie-	-wi-	-na-
8r	8dd/ 8g/ 8d/	.	.	.	.	.
8G\ 8GG\	8r	.	4b\	-bie	-ny	-mi
8r	8b/ 8g/ 8d/	.	.	.	.	.
!!LO:LB:g=original
=19	=19	=19	=19	=19	=19	=19
8D/ 8DD/	8r	.	8a/	ko-	ca-	siadł
!	!	!	!LO:TUP:a:problem=klamra łukowa	!	!	!
8r	8f#/ 8c/ 8A/	.	24cc\LL	-cham	-łą	go-
.	.	.	24dd\	.	.	.
.	.	.	24cc\JJ	.	.	.
8D/ 8DD/	8r	.	8b/	tak	mio-	-łąb
8r	8f#/ 8c/ 8A/	.	8a/	o-	-du	i
=20	=20	=20	=20	=20	=20	=20
4E/ 4EE/	8r	.	(8.g/L	-gni-	be-	gru-
.	8g/L 8B/ 8G/	.	.	.	.	.
.	.	.	16b/Jk)	.	.	.
4r	8g/ 8B/ 8G/	.	4b/	-ście	-czkę	-cha
.	8g/J 8B/ 8G/	.	.	.	.	.
=21	=21	=21	=21	=21	=21	=21
8D/ 8DD/	8r	.	8g#X/	Że	I	Z mo-
8r	8g#X/ 8e/ 8B/	.	8g#/	o	po-	-dre-
8D/ 8DD/	8r	.	8ee\	su-	-tem	-mi
8r	8g#/ 8e/ 8B/	.	8g#/	-chym	na	o-
=22	=22	=22	=22	=22	=22	=22
8C/ 8CC/	8r	.	(8.a/L	chle-	chrzci-	-cza-
8r	8a/ 8e/ 8c/	.	.	.	.	.
.	.	.	16cc/Jk)	.	.	.
8AA/ 8AAA/	8r	.	4cc/	-bie	-ny	-mi
8r	8cc/ 8a/ 8e/	.	.	.	.	.
!!LO:LB:g=original
=23	=23	=23	=23	=23	=23	=23
8D/ 8DD/	8r	.	8b/	Żył-	z li-	śmie-
!	!	!	!LO:TUP:a:problem=klamra łukowa	!	!	!
8r	8g/ 8d/ 8B/	.	24g/LL	-bym	-py	-ie
.	.	.	24f#/	.	.	.
.	.	.	24g/JJ	.	.	.
8D/ 8DD/	8r	.	8b/	wie-	ko-	się
8r	8f#/ 8d/ 8c/	.	8a/	-ku-	-ły-	dzie-
=24	=24	=24	=24	=24	=24	=24
4D/ 4DD/	8r	.	(8.f#/L	-i-	-se-	-wu-
.	8f#/L 8d/ 8c/	.	.	.	.	.
.	.	.	16g/Jk)	.	.	.
8G\ 8GG\	8g/J 8d/ 8B/	.	8g/	-ście.	-czkę.	-cha.
8r	(16g/LL	.	8r	.	.	.
.	16f#/JJ)	.	.	.	.	.
=25	=25	=25	=25	=25	=25	=25
*^	*	*	*	*	*	*
!	!	!	!LO:DY:rj	!	!	!	!
4C/	8C\L	8.e/L	f	2r	.	.	.
.	8c\J 8G\ 8E\	.	.	.	.	.	.
.	.	(32a/LL	.	.	.	.	.
.	.	32cc/JJJ)	.	.	.	.	.
*rep	*rep	*	*	*	*	*	*
4C/	8C\L	4ee\	.	.	.	.	.
.	8c\J 8G\ 8E\	.	.	.	.	.	.
*Xrep	*Xrep	*	*	*	*	*	*
=26	=26	=26	=26	=26	=26	=26	=26
4D/	8D\L	8.d/L	.	2r	.	.	.
.	8B\J 8G\	.	.	.	.	.	.
.	.	(32g/LL	.	.	.	.	.
.	.	32b/JJJ)	.	.	.	.	.
*rep	*rep	*	*	*	*	*	*
4D/	8D\L	4dd\	.	.	.	.	.
.	8B\J 8G\	.	.	.	.	.	.
*Xrep	*Xrep	*	*	*	*	*	*
!!LO:LB:g=original
=27	=27	=27	=27	=27	=27	=27	=27
4D/	8D\L	8a'/L	.	2r	.	.	.
.	8c\J 8F#\	8cc'/J	.	.	.	.	.
.	.	(8qcc/	.	.	.	.	.
*rep	*rep	*	*	*	*	*	*
4D/	8D\L	8b/L)	.	.	.	.	.
.	8c\J 8F#\	8a'/J	.	.	.	.	.
*Xrep	*Xrep	*	*	*	*	*	*
*v	*v	*	*	*	*	*	*
=28	=28	=28	=28	=28	=28	=28
8B\L 8G\	8g/L	.	4r	.	.	.
(32F#\LL	(32f#/LL	.	.	.	.	.
32G\	32g/	.	.	.	.	.
32D\	32b/	.	.	.	.	.
32BB\JJJ	32dd/JJJ)	.	.	.	.	.
8GG/)	8gg\	.	8r	.	.	.
!	!	!	!LO:TX:t=[segno]	!	!	!
==	==	==	==	==	==	==
*-	*-	*-	*-	*-	*-	*-
!!!system-decoration: s1{(s2,s3)}
!!!EED: Leszek Kubiak
!!!EST: 2021-05-05
!!!AIN: 1 piano 1 soprn
!!!ENC: Andrzej Gręziak
!!!END: 2021-04-11
